polaris-icons/icons/newicons/PageReferenceMinor.svg

<svg width="20" height="20" viewBox="0 0 20 20" fill="none" xmlns="http://www.w3.org/2000/svg">
<path fill-rule="evenodd" clip-rule="evenodd" d="M5.5 4.75C5.5 4.05964 6.05964 3.5 6.75 3.5H9.25V7C9.25 7.9665 10.0335 8.75 11 8.75H14.5V12.25C14.5 12.6642 14.8358 13 15.25 13C15.6642 13 16 12.6642 16 12.25V8C16 7.80109 15.921 7.61032 15.7803 7.46967L10.5303 2.21967C10.3897 2.07902 10.1989 2 10 2H6.75C5.23122 2 4 3.23122 4 4.75V15.25C4 16.7688 5.23122 18 6.75 18H10.25C10.6642 18 11 17.6642 11 17.25C11 16.8358 10.6642 16.5 10.25 16.5H6.75C6.05964 16.5 5.5 15.9404 5.5 15.25V4.75ZM13.4393 7.25L10.75 4.56066V7C10.75 7.13807 10.8619 7.25 11 7.25H13.4393Z" fill="black"/>
<path d="M15.9775 19.0378C16.2704 19.3307 16.7453 19.3307 17.0382 19.0378C17.3311 18.7449 17.3311 18.27 17.0382 17.9771L15.0766 16.0155L15.915 15.9866C16.3289 15.9724 16.653 15.6252 16.6387 15.2112C16.6244 14.7973 16.2772 14.4733 15.8633 14.4875L13.3 14.5759C12.9061 14.5895 12.5899 14.9057 12.5763 15.2996L12.4879 17.8629C12.4736 18.2768 12.7977 18.624 13.2116 18.6383C13.6256 18.6526 13.9728 18.3285 13.987 17.9146L14.0159 17.0762L15.9775 19.0378Z" fill="black"/>
</svg>

<svg viewBox="0 0 20 20" fill="none" xmlns="http://www.w3.org/2000/svg"><path fill-rule="evenodd" clip-rule="evenodd" d="M5.5 4.75c0-.69.56-1.25 1.25-1.25h2.5v3.5c0 .966.784 1.75 1.75 1.75h3.5v3.5a.75.75 0 0 0 1.5 0v-4.25a.75.75 0 0 0-.22-.53l-5.25-5.25a.75.75 0 0 0-.53-.22h-3.25a2.75 2.75 0 0 0-2.75 2.75v10.5a2.75 2.75 0 0 0 2.75 2.75h3.5a.75.75 0 0 0 0-1.5h-3.5c-.69 0-1.25-.56-1.25-1.25v-10.5Zm7.94 2.5-2.69-2.69v2.44c0 .138.112.25.25.25h2.44Z" fill="#5C5F62"/><path d="M15.977 19.038a.75.75 0 0 0 1.061-1.06l-1.961-1.963.838-.028a.75.75 0 1 0-.052-1.5l-2.563.089a.75.75 0 0 0-.724.724l-.088 2.563a.75.75 0 0 0 1.499.052l.029-.839 1.961 1.962Z" fill="#5C5F62"/></svg>
